X:1
T:Misty, Moisty Morning
M:4/4
L:1/4
K:D
F/2-G/2| A A A A| A2 AG/2-A/2| B A G A| B2 Bc/2-d/2| c A A A| A2 A A|\
 G E E F| G2 G A/2G/2| F D D E| F- G A G/2F/2| E D C D| E3 F/2G/2|\
 F D D E| F G AG/2-F/2| B A ^G3/2 A/2| A3||
